X:413
T: Ein Kind geboren zu Bethlehem (5-8), S. 21
N: P0683
O: Lothringen
S: MERKELBACH-PINCK, Angelika: Verklingende Weisen, Bd 5, Kassel 1962]
R: geistliches, religiöses Lied]
M: 3/4
L: 1/16
K: G
D4 | G8G4 | B4A4G4 | d8e4 | d8
d4 | A4B4^c4 | d8
B4 | d6e2d4 | d4c4B4 | c4B4A4 | B4A4
G4 | A8c3B | B8A4 | G8

